icons/git/pull-request.svg

<svg width="32" height="32" viewBox="0 0 32 32" fill="none" xmlns="http://www.w3.org/2000/svg">
<path fill-rule="evenodd" clip-rule="evenodd" d="M23.0005 25.5C23.0005 24.1193 24.1198 23 25.5005 23C26.8812 23 28.0005 24.1193 28.0005 25.5C28.0005 26.8807 26.8812 28 25.5005 28C24.1198 28 23.0005 26.8807 23.0005 25.5ZM24.5005 21.1115V10C24.5005 8.34315 23.1574 7 21.5005 7H17.4147L20.2076 9.79289L18.7934 11.2071L14.2934 6.70711L13.5863 6L14.2934 5.29289L18.7934 0.792892L20.2076 2.20711L17.4147 5H21.5005C24.2619 5 26.5005 7.23858 26.5005 10V21.1115C28.5045 21.5662 30.0005 23.3584 30.0005 25.5C30.0005 27.9853 27.9858 30 25.5005 30C23.0152 30 21.0005 27.9853 21.0005 25.5C21.0005 23.3584 22.4965 21.5662 24.5005 21.1115ZM4.00049 25.5C4.00049 24.1203 5.11809 23.0017 6.49737 23L6.50049 23L6.50361 23C7.88289 23.0017 9.00049 24.1203 9.00049 25.5C9.00049 26.8807 7.8812 28 6.50049 28C5.11978 28 4.00049 26.8807 4.00049 25.5ZM2.00049 25.5C2.00049 23.3584 3.4965 21.5662 5.50049 21.1115V10.8885C3.4965 10.4338 2.00049 8.64159 2.00049 6.5C2.00049 4.01472 4.01521 2 6.50049 2C8.98577 2 11.0005 4.01472 11.0005 6.5C11.0005 8.64159 9.50448 10.4338 7.50049 10.8885V21.1115C9.50448 21.5662 11.0005 23.3584 11.0005 25.5C11.0005 27.9853 8.98577 30 6.50049 30C4.01521 30 2.00049 27.9853 2.00049 25.5ZM6.50049 9C7.8812 9 9.00049 7.88071 9.00049 6.5C9.00049 5.11929 7.8812 4 6.50049 4C5.11978 4 4.00049 5.11929 4.00049 6.5C4.00049 7.88071 5.11978 9 6.50049 9Z" fill="black"/>
</svg>

<svg width="32" height="32" viewBox="0 0 32 32" xmlns="http://www.w3.org/2000/svg">
    <path fill-rule="evenodd" d="M23 25.5a2.5 2.5 0 115 0 2.5 2.5 0 01-5 0zm1.5-4.389V10a3 3 0 00-3-3h-4.085l2.793 2.793-1.415 1.414-4.5-4.5L13.586 6l.707-.707 4.5-4.5 1.415 1.414L17.415 5H21.5a5 5 0 015 5v11.111a4.502 4.502 0 01-1 8.889 4.5 4.5 0 01-1-8.889zM4 25.5A2.5 2.5 0 016.497 23h.007A2.5 2.5 0 114 25.5zm-2 0a4.502 4.502 0 013.5-4.389V10.888A4.502 4.502 0 016.5 2a4.5 4.5 0 011 8.889v10.223A4.502 4.502 0 016.5 30 4.5 4.5 0 012 25.5zM6.5 9a2.5 2.5 0 100-5 2.5 2.5 0 000 5z"/>
</svg>
